Default.style/pool.svg

<svg width="32" height="30" xmlns="http://www.w3.org/2000/svg"><path d="M28.5 30c-1.934 0-3.5-.896-3.5-2h-1c0 1.104-1.566 2-3.5 2-.172 0-.336-.016-.5-.029-.165.013-.329.029-.5.029-1.934 0-3.5-.896-3.5-2h-1c0 1.104-1.567 2-3.5 2-1.934 0-3.5-.896-3.5-2H7c0 1.104-1.567 2-3.5 2-1.934 0-3.5-.896-3.5-2v-4c0 1.104 1.566 2 3.5 2 1.933 0 3.5-.896 3.5-2h1c0 1.104 1.566 2 3.5 2 1.933 0 3.5-.896 3.5-2h1c0 1.104 1.566 2 3.5 2 .171 0 .335-.016.5-.029.164.013.328.029.5.029 1.934 0 3.5-.896 3.5-2h1c0 1.104 1.566 2 3.5 2s3.5-.896 3.5-2v4c0 1.104-1.566 2-3.5 2Zm0-7c-1.934 0-3.5-.896-3.5-2h-1c0 1.104-1.566 2-3.5 2-.172 0-.336-.016-.5-.029-.165.013-.329.029-.5.029-1.934 0-3.5-.896-3.5-2h-1c0 1.104-1.567 2-3.5 2-1.934 0-3.5-.896-3.5-2H7c0 1.104-1.567 2-3.5 2-1.934 0-3.5-.896-3.5-2v-4c0 1.104 1.566 2 3.5 2 1.933 0 3.5-.896 3.5-2h1c0 1.104 1.566 2 3.5 2 1.933 0 3.5-.896 3.5-2h1c0 1.104 1.566 2 3.5 2 .171 0 .335-.016.5-.029.164.013.328.029.5.029 1.934 0 3.5-.896 3.5-2h1c0 1.104 1.566 2 3.5 2s3.5-.896 3.5-2v4c0 1.104-1.566 2-3.5 2ZM16 7.077V16h-2V6c0-3.313 2.688-6 6-6h2v2h-1.412C18.055 2 16 4.273 16 7.077ZM6 16H4V6a6 6 0 0 1 6-6h2v2h-1.412C8.055 2 6 4.273 6 7.077V10h8v2H6v4Z" fill="#888" fill-rule="evenodd"/></svg>

<?xml version="1.0" encoding="UTF-8" standalone="no"?>
<svg width="32px" height="30px" viewBox="0 0 32 30" version="1.1" xmlns="http://www.w3.org/2000/svg" xmlns:xlink="http://www.w3.org/1999/xlink" xmlns:sketch="http://www.bohemiancoding.com/sketch/ns">
    <!-- Generator: Sketch 3.2.2 (9983) - http://www.bohemiancoding.com/sketch -->
    <title>pool</title>
    <desc>Created with Sketch.</desc>
    <defs></defs>
    <g id="p" stroke="none" stroke-width="1" fill="none" fill-rule="evenodd" sketch:type="MSPage">
        <g id="pool" sketch:type="MSLayerGroup" fill="#888888">
            <path d="M28.5,30 C26.566,30 25,29.104 25,28 L24,28 C24,29.104 22.434,30 20.5,30 C20.328,30 20.164,29.984 20,29.971 C19.835,29.984 19.671,30 19.5,30 C17.566,30 16,29.104 16,28 L15,28 C15,29.104 13.433,30 11.5,30 C9.566,30 8,29.104 8,28 L7,28 C7,29.104 5.433,30 3.5,30 C1.566,30 0,29.104 0,28 L0,24 C0,25.104 1.566,26 3.5,26 C5.433,26 7,25.104 7,24 L8,24 C8,25.104 9.566,26 11.5,26 C13.433,26 15,25.104 15,24 L16,24 C16,25.104 17.566,26 19.5,26 C19.671,26 19.835,25.984 20,25.971 C20.164,25.984 20.328,26 20.5,26 C22.434,26 24,25.104 24,24 L25,24 C25,25.104 26.566,26 28.5,26 C30.434,26 32,25.104 32,24 L32,28 C32,29.104 30.434,30 28.5,30 L28.5,30 Z M28.5,23 C26.566,23 25,22.104 25,21 L24,21 C24,22.104 22.434,23 20.5,23 C20.328,23 20.164,22.984 20,22.971 C19.835,22.984 19.671,23 19.5,23 C17.566,23 16,22.104 16,21 L15,21 C15,22.104 13.433,23 11.5,23 C9.566,23 8,22.104 8,21 L7,21 C7,22.104 5.433,23 3.5,23 C1.566,23 0,22.104 0,21 L0,17 C0,18.104 1.566,19 3.5,19 C5.433,19 7,18.104 7,17 L8,17 C8,18.104 9.566,19 11.5,19 C13.433,19 15,18.104 15,17 L16,17 C16,18.104 17.566,19 19.5,19 C19.671,19 19.835,18.984 20,18.971 C20.164,18.984 20.328,19 20.5,19 C22.434,19 24,18.104 24,17 L25,17 C25,18.104 26.566,19 28.5,19 C30.434,19 32,18.104 32,17 L32,21 C32,22.104 30.434,23 28.5,23 L28.5,23 Z M16,7.077 L16,16 L14,16 L14,6 C14,2.687 16.688,0 20,0 L22,0 L22,2 L20.588,2 C18.055,2 16,4.273 16,7.077 L16,7.077 Z M6,16 L4,16 L4,12 L4,10 L4,6 C4,2.687 6.687,0 10,0 L12,0 L12,2 L10.588,2 C8.055,2 6,4.273 6,7.077 L6,10 L14,10 L14,12 L6,12 L6,16 L6,16 Z" id="Shape" sketch:type="MSShapeGroup"></path>
        </g>
    </g>
</svg>
